!!!COM: Fanny (Mendelssohn) Hensel
!!!CNT: Deutsch
!!!TXO: Deutsch
!!!OTL: "Ich wandelte unter den Ba2umen"
!!!LYR: Heine, Heinrich
!!!OPR:
!!!OPS: Op.
!!!ONM: No.
!!!ENC: Emily Thomas
!!!YOR: Hensel: 16 Songs Fanny Mendelssohn Hensel
!!!YOR: Alfred, 1995
!!!ODT: 1838/
!!NB: Vocal melody and text encoded.
**kern	**silbe
=1	=1
*clefG2	*
*k[b-]	*
*M3/4	*
*MM[Andante con moto]	*
2.r	.
=2	=2
2.r	.
=3	=3
2.r	.
=4	=4
4r	.
4r	.
{4c	{Ich
=5	=5
4.cc	wan-
8dd	-del-
4cc	-te
=6	=6
4cc	un-
4g	-ter
4a	den
=7	=7
16aq	Ba2u-
16ccq	|
2.b-	|
=8	=8
2a}	-men}
4r	.
=9	=9
{4a	{mit
4g	mei-
4f	-nem
=10	=10
4f	Gram
16gq	|
16fq	|
4e	|
4f	al-
=11	=11
2.a	-lein;
=12	=12
4g}	|}
4r	.
{4c	{da
=13	=13
4.cc	kam
8dd	|
4cc	das
=14	=14
4cc	al-
4g	|
4g	-te
=15	=15
4.cc	Tra2u-
8b-	|
8a	|
8g	|
=16	=16
4g	men
4f#}	|}
4r	.
=17	=17
{4g	{und
4b-	schlich
4dd	ins
=18	=18
2.ff	Herz
=19	=19
4e-	mir
4g	|
4b-	hin-
=19	=19
2dd}	-ein.}
4r	.
=21	=21
{4dd	{und
4cc	schlich
4b-	ins
=22	=22
8ccq	Herz
4b-	|
4a	mir
4b-	hin-
=23	=23
2.dd	-ein,
=24	=24
4cc}	|}
8r	.
{8f	und
8f	schlich
8g	ins
=25	=25
4f	herz
4e}	mir,}
4r	.
=26	=26
4r	.
8r	.
{8b-	{ins
8d-	Herz
8cc	hin-
=27	=27
4b-	-ein.
4a}	|}
4r	.
=28	=28
4r	.
4r	.
{4f	{Wer
=29	=29
4.ff	hat
8gg	euch
4ff	dies
=30	=30
4ff	Wo2rt-
4cc	-lein
4dd	ge-
=31	=31
2.ee-T	-leh
=32	=32
4dd}	-ret,}
4r	.
{4dd	ihr
=33	=33
4.dd	Vo2g-
8cc	-lein
4b-	in
=34	=34
4b-	luf-
16ccq	|
16b-q	|
8a	|
8b-	|
8a	-ti-
8b-	-ger
=35	=35
2.dd	Ho2h?
=36	=36
4cc}	|}
4r	.
{4f	{Schweigt
=37	=37
4ff	still!
4ee-	Wenn
4dd	mein
=38	=38
4dd	herz
4cc	|
4bn	es
=39	=39
2gg	ho2-
4ee-	|
=40	=40
4cc}	-ret,}
4r	.
{4cc	{dann
=41	=41
4cc	tut
4b-	es
4a	noch
=42	=42
4a	ein-
4g	-mal
4f#	so
=43	=43
2.dd}	weh,}
=44	=44
{2.dd-	{dann
=45	=45
[2.cc	tut
=46	=46
4cc]	|
4f	es
8cc	noch
8b-	|
=47	=47
2at	ein
16b-q	|
16aq	|
8g	|
8a	|
=48	=48
4cc	|
4b-}	-mal}
{8g	{so
8a	|
=49	=49
4f}	weh.}
4r	.
4r	.
=50	=50
2.r	.
=51	=51
2.r	.
=52	=52
4r	.
4r	.
{4c	{"Es
=53	=53
4.cc	kam
8dd	ein
4cc	Jung-
=54	=54
4cc	-fra2u-
4g	-lein
4a	ge-
=55	=55
16aq	-gan-
16cq	|
2.b-	|
=56	=56
2a}	-gen,}
4r	.
=57	=57
{4a	{die
4g	sang
4f	es
=58	=58
4f	im-
16gq	|
16fq	|
4e	|
4f	-mer-
=59	=59
2.a	-fort,
=60	=60
4g}	|}
4r	.
{4c	{da
=61	=61
4.cc	ha-
8dd	-ben
4cc	wir
=62	=62
4cc	Vo2g-
4g}	-lein,}
{4g	{wir
=63	=63
8cc	Vo2g-
8dd	|
8ee-	-lein
8cc	|
8a	ge-
8g	|
=64	=64
4g	-fan-
4f#}	-gen}
4r	.
=65	=65
{4g	{das
4b-	su2s-
4dd	-se
=66	=66
2.ff	Wort,
=67	=67
4e-	das
4g	gol-
4b-	-dne
=68	=68
2dd}	Wort,}
4r	.
=69	=69
{4dd	{das
4cc	su2s-
4b-	-se,
=70	=70
4b-	gol-
16ccq	|
16b-q	|
4a	|
4b-	-dne
=71	=71
2.dd	Wort,
=72	=72
4cc}	|}
8r	.
{8f	{das
8f	su2s-
8g	-se
=73	=73
4f	Wort,
4e}	|}
4r	.
=74	=74
4r	.
8r	.
{8b-	{das
8dd-	gol-
8cc	-dne
=75	=75
4b-	Wort!"
4a}	|}
4r	.
=76	=76
4r	.
4r	.
{4f	{Das
=77	=77
4.ff	sollt
8gg	ihr
4ff	mir
=78	=78
4ff	nicht
4cc	mehr
4dd	er-
=79	=79
2.ee-T	-za2h-
=80	=80
4dd}	-len,}
4r	.
4r	.
=81	=81
{4dd	{ihr
4cc	Vo2g-
4b-	-lein
=82	=82
4b-	wun-
16ccq	|
16b-q	|
8a	|
8b-	|
8a	-der-
8b-	|
=83	=83
2.dd	-schlau;
=84	=84
4cc}	|}
4r	.
{4f	{ihr
=85	=85
4ff	wollt
4ee-	mei-
4dd	-nen
=86	=86
4dd	Kum-
4cc	-mer
4bn	mir
=87	=87
2gg	steh-
4ee-	|
=88	=88
4cc}	-len,}
4r	.
4r	.
=89	=89
{4cc	{ich
4b-	a-
4a	-ber
=90	=90
4a	nie-
4g	-man-
4f#	-dem
=91	=91
2.dd}	trau,}
=92	=92
{2.dd-	{ich
=93	=93
[2.cc	a-
=94	=94
4cc]	|
4f	|
8cc	-ber
8b-	|
=95	=95
2.aT	nie-
=96	=96
4cc	|
4b-	man-
8g	-dem
8a	|
=97	=97
4f}	trau,}
4r	.
4r	.
=98	=98
{4ff	{ich
4ee	a-
4dd	-ber
=99	=99
4cc	nie-
4b-	-man-
4g#}	-dem,}
=100	=100
{2a	{nie-
8cc	-man-
8b-	-dem
=101	=101
4a}	trau,}
4r	.
4r	.
=102	=102
{4ff	{ihr
4ee	Vo2g-
4dd	-lein
=103	=103
4cc	wun-
4b-	|
4g#	-der-
=104	=104
8a	schlau
8cc	|
8ff	|
8aa	|
8gg	|
8ff	|
=105	=105
8ee	|
8dd	|
8cc	|
8bn}	|}
{8ff	{ihr
8bn	|
=106	=106
2cc	Vo2g-
4bn	-lein
=107	=107
4b-	wun-
16ccq	|
16b-q	|
4a	|
4g	-der-
=108	=108
4f}	-schlau!}
4r	.
4r	.
==	==
*-	*-
